style/elvis/src/icons/svg/src/question-conversation.svg

<svg width="24" height="25" viewBox="0 0 24 25" fill="none" xmlns="http://www.w3.org/2000/svg">
<path d="M5.087 19.5034C5.141 19.5164 5.196 19.5224 5.25 19.5224C5.319 19.5224 5.387 19.5124 5.452 19.4924C5.462 19.4904 5.492 19.4804 5.501 19.4774C5.566 19.4543 5.627 19.4233 5.67 19.3923C5.68 19.3863 5.691 19.3793 5.7 19.3722L8.7 17.1197C9.031 16.8714 9.098 16.3998 8.85 16.0684C8.709 15.8802 8.485 15.7681 8.25 15.7681C8.086 15.7681 7.931 15.8202 7.8 15.9183L6 17.2698V14.2664C6 13.8519 5.664 13.5155 5.25 13.5155H2.25C1.836 13.5155 1.5 13.1791 1.5 12.7647V2.25259C1.5 1.83811 1.836 1.50172 2.25 1.50172H15.75C16.164 1.50172 16.5 1.83811 16.5 2.25259V6.75776C16.5 7.17224 16.836 7.50862 17.25 7.50862C17.664 7.50862 18 7.17224 18 6.75776V2.25259C18 1.01016 16.991 0 15.75 0H2.25C1.009 0 0 1.01016 0 2.25259V12.7647C0 14.0071 1.009 15.0172 2.25 15.0172H4.5V18.7716C4.5 18.7826 4.501 18.7946 4.502 18.8066C4.50282 18.8254 4.50497 18.8435 4.50736 18.8637L4.509 18.8777L4.51111 18.8911C4.51349 18.9065 4.51679 18.9279 4.519 18.9367C4.524 18.9608 4.531 18.9838 4.542 19.0148C4.549 19.0369 4.557 19.0579 4.565 19.0759C4.575 19.0969 4.586 19.118 4.597 19.137C4.608 19.157 4.619 19.176 4.63 19.192C4.636 19.201 4.642 19.2101 4.647 19.2171C4.657 19.2311 4.672 19.2481 4.686 19.2631C4.706 19.2871 4.727 19.3092 4.749 19.3282C4.764 19.3422 4.779 19.3542 4.801 19.3712C4.828 19.3903 4.855 19.4073 4.891 19.4283L4.934 19.4503C4.97 19.4674 5.007 19.4804 5.036 19.4884C5.049 19.4934 5.074 19.5004 5.087 19.5034Z" fill="black"/>
<path d="M8.625 8.25948C8.211 8.25948 7.875 7.9231 7.875 7.50862C7.875 7.09415 8.211 6.75776 8.625 6.75776C9.245 6.75776 9.75 6.25218 9.75 5.63147C9.75 5.01075 9.245 4.50517 8.625 4.50517C8.005 4.50517 7.5 5.01075 7.5 5.63147C7.5 6.04594 7.164 6.38233 6.75 6.38233C6.336 6.38233 6 6.04594 6 5.63147C6 4.1828 7.178 3.00345 8.625 3.00345C10.072 3.00345 11.25 4.1828 11.25 5.63147C11.25 7.08013 10.072 8.25948 8.625 8.25948Z" fill="black"/>
<path d="M8.625 11.2629C9.24632 11.2629 9.75 10.7587 9.75 10.1366C9.75 9.5146 9.24632 9.01035 8.625 9.01035C8.00368 9.01035 7.5 9.5146 7.5 10.1366C7.5 10.7587 8.00368 11.2629 8.625 11.2629Z" fill="black"/>
<path d="M16.5 15.7681C16.5 16.1826 16.836 16.519 17.25 16.519C17.664 16.519 18 16.1826 18 15.7681V12.7647C18 12.3502 17.664 12.0138 17.25 12.0138C16.836 12.0138 16.5 12.3502 16.5 12.7647V15.7681Z" fill="black"/>
<path fill-rule="evenodd" clip-rule="evenodd" d="M20.25 24.0276C20.05 24.0276 19.861 23.9495 19.72 23.8073L15.44 19.5224H11.25C10.836 19.5224 10.5 19.186 10.5 18.7716V9.76121C10.5 9.34673 10.836 9.01035 11.25 9.01035H23.25C23.664 9.01035 24 9.34673 24 9.76121V18.7716C24 19.186 23.664 19.5224 23.25 19.5224H21V23.2767C21 23.5811 20.818 23.8534 20.537 23.9705C20.446 24.0086 20.349 24.0276 20.25 24.0276ZM15.75 18.0207C15.948 18.0207 16.141 18.1008 16.28 18.2409L19.5 21.4646V18.7716C19.5 18.3571 19.836 18.0207 20.25 18.0207H22.5V10.5121H12V18.0207H15.75Z" fill="black"/>
</svg>

<svg width="24" height="25" fill="none" xmlns="http://www.w3.org/2000/svg"><path d="M5.087 19.503a.698.698 0 00.365-.01l.049-.016a.704.704 0 00.199-.105l3-2.252a.752.752 0 00-.45-1.352.744.744 0 00-.45.15L6 17.27v-3.004a.75.75 0 00-.75-.75h-3a.75.75 0 01-.75-.751V2.253a.75.75 0 01.75-.751h13.5a.75.75 0 01.75.75v4.506a.75.75 0 101.5 0V2.253A2.253 2.253 0 0015.75 0H2.25A2.253 2.253 0 000 2.253v10.512a2.253 2.253 0 002.25 2.252H4.5v3.755l.002.035c0 .018.003.037.005.057l.002.014.002.013.008.046a.578.578 0 00.023.078.596.596 0 00.088.177l.017.025c.01.014.025.031.039.046a.557.557 0 00.115.108.95.95 0 00.09.057l.043.022c.036.017.073.03.102.038a.491.491 0 00.051.015z" fill="#1B314B"/><path d="M8.625 8.26a.75.75 0 010-1.502 1.127 1.127 0 000-2.253c-.62 0-1.125.506-1.125 1.126a.75.75 0 11-1.5 0 2.63 2.63 0 012.625-2.628 2.63 2.63 0 012.625 2.628A2.63 2.63 0 018.625 8.26zm0 3.003a1.126 1.126 0 10-.001-2.251 1.126 1.126 0 00.001 2.25zm7.875 4.505a.75.75 0 101.5 0v-3.003a.75.75 0 10-1.5 0v3.003z" fill="#1B314B"/><path fill-rule="evenodd" clip-rule="evenodd" d="M20.25 24.028a.742.742 0 01-.53-.22l-4.28-4.286h-4.19a.75.75 0 01-.75-.75v-9.01a.75.75 0 01.75-.752h12a.75.75 0 01.75.751v9.01a.75.75 0 01-.75.751H21v3.755a.75.75 0 01-.75.75zm-4.5-6.007a.75.75 0 01.53.22l3.22 3.224v-2.693a.75.75 0 01.75-.751h2.25v-7.509H12v7.509h3.75z" fill="#1B314B"/></svg>
